lib/brands/logos/paysafe.svg

<svg xmlns="http://www.w3.org/2000/svg" fill="none" aria-hidden="true" viewBox="0 0 260 69"><g id="Paysafe"><g id="Paysafe-UI-KIT-logos"><g id="Logos-colour"><g id="b2b-logo-full-colour"><path id="Fill-1" fill="#7887E6" fill-rule="evenodd" d="M254.717 26.427C254.717 30.3614 251.527 33.5513 247.593 33.5513C243.658 33.5513 240.469 30.3614 240.469 26.427C240.469 22.4926 243.658 19.3027 247.593 19.3027C251.527 19.3027 254.717 22.4926 254.717 26.427Z" clip-rule="evenodd"/><path id="Fill-3" fill="#FF5073" fill-rule="evenodd" d="M254.717 48.7229C254.717 52.6573 251.527 55.8472 247.593 55.8472C243.658 55.8472 240.469 52.6573 240.469 48.7229C240.469 44.7885 243.658 41.5986 247.593 41.5986C251.527 41.5986 254.717 44.7885 254.717 48.7229Z" clip-rule="evenodd"/><path id="Fill-5" fill="#2D2341" fill-rule="evenodd" d="M22.9008 29.5656H17.223V16.0193H22.9008C26.941 16.0193 29.1974 18.8221 29.1974 22.8618C29.1974 27.1749 26.6651 29.5656 22.9008 29.5656ZM24.1352 7.80574H6V55.0257H17.223V37.7792H24.1352C33.2346 37.7792 40.0805 32.1008 40.0805 22.4497C40.0805 14.1023 34.9456 7.80574 24.1352 7.80574ZM99.0949 20.1239L91.5654 40.9789L82.9205 20.1239H71.7118L86.4738 53.3831L81.869 64.8175H92.2884L109.974 20.1239H99.0949ZM179.974 18.6864V20.1239H174.156V27.5831H179.974V55.0257H190.855V27.5831H198.383V20.1239H190.855V18.2762C190.855 15.1966 192.087 13.0066 195.44 13.0066C196.467 13.0066 197.767 13.2121 198.656 13.4856V5.6841C197.15 5.27344 195.44 5 193.455 5C184.627 5 179.974 10.4059 179.974 18.6864ZM160.071 47.361C159.045 48.1139 157.471 48.7302 155.76 48.7302C153.023 48.7302 151.175 47.1559 151.175 44.6236C151.175 41.7495 153.44 38.9379 160.071 40.0385V47.361ZM157.95 19.3031C151.175 19.3031 145.837 21.4248 142.552 23.4775L145.563 29.7052C147.548 28.8156 151.722 27.2413 155.281 27.2413C157.813 27.2413 160.071 28.131 160.071 30.8V33.1267C144.979 32.0531 140.64 38.6929 140.64 44.8248C140.64 50.8169 145.713 55.847 152.391 55.847C155.025 55.847 157.884 54.8511 160.071 53.4785V55.0257H171.021V30.7316C171.021 22.8618 166.025 19.3031 157.95 19.3031ZM60.4992 47.361C59.4733 48.1139 57.899 48.7302 56.188 48.7302C53.4507 48.7302 51.603 47.1559 51.603 44.6236C51.603 41.7495 53.8677 38.9379 60.4992 40.0385V47.361ZM57.9693 19.3031C51.1943 19.3031 45.8567 21.4248 42.5715 23.4775L45.5828 29.7052C47.5672 28.8156 51.7421 27.2413 55.3003 27.2413C57.8326 27.2413 60.091 28.131 60.091 30.8V33.1267C44.998 32.0531 40.6603 38.6929 40.6603 44.8248C40.6603 50.8169 45.7328 55.847 52.41 55.847C55.0451 55.847 57.9034 54.8511 60.091 53.4785V55.0257H71.0405V30.7316C71.0405 22.8618 66.0448 19.3031 57.9693 19.3031ZM121.239 29.9787C121.239 28.3366 122.881 27.3097 125.618 27.3097C128.492 27.3097 131.503 28.3366 133.694 29.2946L136.773 22.1089C133.899 20.6718 129.519 19.3031 125.071 19.3031C116.927 19.3031 110.358 22.9985 110.358 30.3893C110.358 42.0234 126.781 39.9018 126.781 45.0343C126.781 46.9503 124.865 47.9084 121.649 47.9084C118.364 47.9084 115.216 46.8136 112.753 45.5816L109.262 52.6307C113.369 54.8202 118.159 55.847 122.608 55.847C130.546 55.847 137.389 51.741 137.389 44.2129C137.389 32.7161 121.239 34.6321 121.239 29.9787ZM216.483 26.9679C219.494 26.9679 221.89 29.363 222.3 34.0164H210.666C211.077 29.363 213.472 26.9679 216.483 26.9679ZM233.358 39.7651V37.0385C233.358 26.8041 226.201 19.3031 216.483 19.3031C206.765 19.3031 199.238 27.0362 199.238 37.7807C199.238 48.798 206.355 55.847 217.715 55.847C220.882 55.847 227.146 55.2751 231.976 51.9313L228.924 45.1469C225.65 47.0039 222.331 47.84 219.358 47.84C219.099 47.84 218.845 47.8302 218.594 47.8159C218.537 47.8125 218.48 47.809 218.424 47.8051C218.186 47.7879 217.95 47.7648 217.719 47.7338C217.667 47.7269 217.616 47.7175 217.564 47.7102C217.377 47.6821 217.192 47.6492 217.011 47.6118C216.946 47.5985 216.881 47.5872 216.818 47.5729C216.631 47.5307 216.449 47.4805 216.268 47.4274C216.169 47.3984 216.072 47.3689 215.977 47.3374C215.847 47.2946 215.719 47.2474 215.593 47.1987C215.449 47.1426 215.309 47.0841 215.172 47.0216C215.131 47.0029 215.091 46.9833 215.051 46.9641C214.829 46.8579 214.615 46.7443 214.412 46.6218C214.406 46.6184 214.4 46.6144 214.394 46.611C213.94 46.3351 213.533 46.0193 213.17 45.6697C213.164 45.6643 213.159 45.6593 213.153 45.6539C213.004 45.5093 212.863 45.3579 212.729 45.202C212.676 45.1415 212.624 45.081 212.574 45.018C212.496 44.9216 212.421 44.8238 212.348 44.7244C212.226 44.5543 212.106 44.3816 211.995 44.1972C211.992 44.1918 211.989 44.1869 211.985 44.1815C211.295 43.0208 210.837 41.5597 210.666 39.7656V39.7651H233.358Z" clip-rule="evenodd"/></g></g></g></g></svg>

<svg xmlns="http://www.w3.org/2000/svg" fill="none" aria-hidden="true" viewBox="0 0 260 69"><path fill="#7887E6" fill-rule="evenodd" d="M254.717 26.427a7.125 7.125 0 1 1-14.25 0 7.125 7.125 0 0 1 14.25 0Z" clip-rule="evenodd"/><path fill="#FF5073" fill-rule="evenodd" d="M254.717 48.723a7.125 7.125 0 1 1-14.249 0 7.125 7.125 0 0 1 14.249 0Z" clip-rule="evenodd"/><path fill="#2D2341" fill-rule="evenodd" d="M22.9 29.566h-5.677V16.018h5.678c4.04 0 6.296 2.803 6.296 6.843 0 4.313-2.532 6.704-6.296 6.704Zm1.235-21.76H6v47.22h11.223V37.779h6.912c9.1 0 15.945-5.678 15.945-15.33 0-8.347-5.134-14.643-15.945-14.643Zm74.96 12.318-7.53 20.855-8.644-20.855H71.71l14.763 33.26-4.605 11.433h10.42l17.685-44.693h-10.88Zm80.879-1.438v1.438h-5.818v7.46h5.818v27.442h10.881V27.583h7.528v-7.46h-7.528v-1.847c0-3.08 1.232-5.27 4.585-5.27 1.027 0 2.327.206 3.216.48V5.684A19.55 19.55 0 0 0 193.455 5c-8.828 0-13.481 5.406-13.481 13.686Zm-19.903 28.675c-1.026.753-2.6 1.37-4.311 1.37-2.737 0-4.585-1.575-4.585-4.108 0-2.874 2.265-5.685 8.896-4.584v7.322Zm-2.121-28.058c-6.775 0-12.113 2.122-15.398 4.174l3.011 6.228c1.985-.89 6.159-2.464 9.718-2.464 2.532 0 4.79.89 4.79 3.559v2.327c-15.092-1.074-19.431 5.566-19.431 11.698 0 5.992 5.073 11.022 11.751 11.022 2.634 0 5.493-.996 7.68-2.369v1.548h10.95V30.732c0-7.87-4.996-11.429-13.071-11.429ZM60.5 47.361c-1.027.753-2.601 1.37-4.312 1.37-2.737 0-4.585-1.575-4.585-4.108 0-2.874 2.265-5.685 8.896-4.584v7.322Zm-2.53-28.058c-6.776 0-12.113 2.122-15.398 4.174l3.01 6.228c1.985-.89 6.16-2.464 9.718-2.464 2.533 0 4.791.89 4.791 3.559v2.327c-15.093-1.074-19.43 5.566-19.43 11.698 0 5.992 5.072 11.022 11.749 11.022 2.635 0 5.493-.996 7.681-2.369v1.548h10.95V30.732c0-7.87-4.996-11.429-13.072-11.429Zm63.269 10.676c0-1.642 1.642-2.67 4.379-2.67 2.874 0 5.885 1.027 8.076 1.985l3.079-7.185c-2.874-1.437-7.254-2.806-11.702-2.806-8.144 0-14.713 3.695-14.713 11.086 0 11.634 16.423 9.513 16.423 14.645 0 1.916-1.916 2.874-5.132 2.874-3.285 0-6.433-1.095-8.896-2.326l-3.491 7.049c4.107 2.19 8.897 3.216 13.346 3.216 7.938 0 14.781-4.106 14.781-11.634 0-11.497-16.15-9.58-16.15-14.234Zm95.244-3.011c3.011 0 5.407 2.395 5.817 7.048h-11.634c.411-4.653 2.806-7.048 5.817-7.048Zm16.875 12.797v-2.727c0-10.234-7.157-17.735-16.875-17.735s-17.245 7.733-17.245 18.478c0 11.017 7.117 18.066 18.477 18.066 3.167 0 9.431-.572 14.261-3.916l-3.052-6.784c-3.274 1.857-6.593 2.693-9.566 2.693-.259 0-.513-.01-.764-.024l-.17-.011a11.44 11.44 0 0 1-.705-.071c-.052-.007-.103-.017-.155-.024a10.206 10.206 0 0 1-.553-.098c-.065-.014-.13-.025-.193-.04a9.012 9.012 0 0 1-.841-.235 8.045 8.045 0 0 1-.805-.315l-.121-.058a7.509 7.509 0 0 1-.639-.342l-.018-.011a6.993 6.993 0 0 1-1.224-.941l-.017-.016a6.86 6.86 0 0 1-.579-.636 7.985 7.985 0 0 1-.589-.837c-.69-1.16-1.148-2.621-1.319-4.415v-.001h22.692Z" clip-rule="evenodd"/></svg>
